packages/foundations/assets/icons/functional/images/transportation/boat_20_inverted.svg

<svg width="20" height="20" viewBox="0 0 20 20" fill="none" xmlns="http://www.w3.org/2000/svg">
<g clip-path="url(#clip0_2214_6674)">
<path fill-rule="evenodd" clip-rule="evenodd" d="M15.3078 13.2464C15.5839 13.5306 15.7825 13.7213 15.9038 13.8185C16.257 14.1018 16.6478 14.3251 16.9649 14.3251C17.4343 14.3251 17.8149 14.7057 17.8149 15.1751C17.8149 15.6446 17.4343 16.0252 16.9649 16.0252C16.2231 16.0252 15.4495 15.677 14.6439 14.9808C13.842 15.677 13.0601 16.0252 12.2982 16.0252C11.5363 16.0252 10.7625 15.677 9.97687 14.9808C9.17126 15.6757 8.39389 16.0231 7.64477 16.0231C6.89565 16.0231 6.11768 15.6757 5.31087 14.9808C4.51255 15.6708 3.7405 16.0188 2.99474 16.0249C2.48718 16.0291 2.11487 15.6446 2.11487 15.1751C2.11487 14.7418 2.47677 14.3166 2.96487 14.3251C3.25862 14.3302 3.65093 14.13 4.05615 13.8125C4.3374 13.5922 4.55882 13.3698 4.67348 13.2357C5.01679 12.8343 5.63927 12.8399 5.97531 13.2474C6.08434 13.3797 6.29722 13.6003 6.56942 13.8188C6.92215 14.1019 7.35866 14.3259 7.64477 14.325C7.93089 14.3242 8.31931 14.1279 8.72228 13.8124C9.00383 13.5919 9.22563 13.3694 9.34058 13.2352C9.68382 12.8345 10.3054 12.84 10.6415 13.2468C10.7508 13.3792 10.9642 13.6 11.2367 13.8186C11.5897 14.1019 12.0138 14.3259 12.312 14.325C12.6102 14.3241 12.9864 14.1274 13.3888 13.8124C13.6704 13.5919 13.8923 13.3693 14.0073 13.2351C14.3505 12.8346 14.9717 12.84 15.3078 13.2464ZM12.9775 5.50665C13.2817 5.91402 13.504 6.31666 13.6517 6.64809L16.8855 6.07812C17.5792 5.95598 18.096 6.67479 17.8001 7.28219L15.5705 10.7884C15.3538 11.1281 15.0686 11.2133 14.7978 11.1826C14.527 11.1518 14.4331 11.0458 14.2899 11.0458C14.1468 11.0458 13.4482 12.4889 12.2478 12.4889C11.4475 12.4889 10.6689 12.0732 9.91187 11.2418C9.03878 12.0732 8.2235 12.4889 7.46604 12.4889C6.70857 12.4889 5.96418 12.1368 5.23287 11.4328C4.51436 12.29 3.75836 12.7186 2.96487 12.7186C2.53154 12.7186 2.12149 12.399 2.12149 11.9753L2.11487 10.2313C2.11487 9.38611 2.68609 8.65582 3.49061 8.44302L4.79396 8.19614C5.15531 8.11633 5.33351 7.55761 5.20459 6.22866L5.12397 5.57773C5.06084 5.14978 5.31087 4.70895 5.83878 4.61309L9.83 4.01445C11.1176 3.80753 12.1713 4.42702 12.9775 5.50665ZM10.2291 5.67986L6.90287 6.1718C6.96578 6.87794 6.93706 7.401 6.86553 7.84285C10.2208 7.25198 11.8984 6.95655 11.8984 6.95655C11.2786 5.93042 10.7315 5.65607 10.2291 5.67986Z" fill="#1A1C1F"/>
</g>
<defs>
<clipPath id="clip0_2214_6674">
<rect width="20" height="20" fill="white"/>
</clipPath>
</defs>
</svg>

<svg xmlns="http://www.w3.org/2000/svg" width="20" height="20" fill="none"><g clip-path="url(#a)"><path fill="#1A1C1F" fill-rule="evenodd" d="M15.308 13.246q.414.427.596.572c.353.284.744.507 1.06.507a.85.85 0 0 1 0 1.7q-1.11 0-2.32-1.044-1.203 1.044-2.346 1.044t-2.321-1.044q-1.209 1.042-2.332 1.042-1.124 0-2.334-1.042-1.197 1.035-2.316 1.044a.85.85 0 0 1-.88-.85c0-.433.362-.858.85-.85.294.005.686-.195 1.091-.512.281-.22.503-.443.617-.577a.85.85 0 0 1 1.302.011c.11.133.322.353.594.572.353.283.79.507 1.076.506.286 0 .674-.197 1.077-.513.282-.22.504-.443.619-.577a.85.85 0 0 1 1.3.012c.11.132.323.353.596.572.353.283.777.507 1.075.506.298 0 .674-.198 1.077-.513.281-.22.503-.443.618-.577a.85.85 0 0 1 1.3.011m-2.33-7.74c.304.408.526.81.674 1.142l3.234-.57a.85.85 0 0 1 .914 1.204l-2.23 3.506c-.216.34-.501.425-.772.395-.271-.031-.365-.137-.508-.137s-.842 1.443-2.042 1.443q-1.201 0-2.336-1.247-1.31 1.247-2.446 1.247t-2.233-1.056q-1.078 1.286-2.268 1.286c-.433 0-.844-.32-.844-.744l-.006-1.744A1.85 1.85 0 0 1 3.49 8.443l1.303-.247c.361-.08.54-.638.41-1.967l-.08-.651c-.063-.428.187-.87.715-.965l3.991-.599c1.288-.206 2.341.413 3.147 1.493m-2.749.174-3.326.492c.063.706.034 1.229-.037 1.67l5.032-.885c-.62-1.027-1.166-1.3-1.669-1.277" clip-rule="evenodd"/></g><defs><clipPath id="a"><path fill="#fff" d="M0 0h20v20H0z"/></clipPath></defs></svg>
